src/icons/eye-closed.svg

<svg viewBox="0 0 20 20" fill="none" xmlns="http://www.w3.org/2000/svg">
<path d="M14.7834 15.4697C14.9775 15.6578 15.2748 15.6699 15.469 15.4697C15.6692 15.2634 15.657 14.9722 15.469 14.7841L5.19107 4.51835C5.00906 4.33026 4.69356 4.3242 4.50548 4.51835C4.32346 4.70036 4.32346 5.01586 4.50548 5.19788L14.7834 15.4697ZM10.0024 4.86418C8.94668 4.86418 7.98806 5.0462 7.09618 5.33742L8.06694 6.30818C8.67973 6.13223 9.31679 6.02909 10.0024 6.02909C13.8793 6.02909 16.9615 9.40246 16.9615 10.1123C16.9615 10.5916 15.9786 11.8294 14.4193 12.8062L15.3173 13.7102C17.2224 12.4603 18.3327 10.8283 18.3327 10.1123C18.3327 8.86855 14.9775 4.86418 10.0024 4.86418ZM10.0024 15.3665C11.1248 15.3665 12.1502 15.1724 13.0785 14.8508L12.1138 13.8861C11.4524 14.0803 10.7547 14.2016 10.0024 14.2016C6.12543 14.2016 3.04328 10.9617 3.04328 10.1123C3.04328 9.70582 4.0747 8.38924 5.73712 7.36994L4.82097 6.45379C2.83699 7.71577 1.66602 9.38426 1.66602 10.1123C1.66602 11.3561 5.094 15.3665 10.0024 15.3665ZM13.0299 11.2833C13.1877 10.9253 13.2787 10.5249 13.2787 10.1123C13.2787 8.28609 11.8225 6.84816 10.0024 6.84816C9.58374 6.84816 9.18937 6.92704 8.82534 7.07872L13.0299 11.2833ZM10.0024 13.3826C10.4756 13.3826 10.9185 13.2734 11.3129 13.0853L7.02337 8.78967C6.82922 9.19011 6.72001 9.63302 6.72001 10.1184C6.72608 11.8961 8.17615 13.3826 10.0024 13.3826Z" fill="currentColor"/>
</svg>

<svg viewBox="0 0 20 20" fill="none" xmlns="http://www.w3.org/2000/svg"><path d="M14.783 15.47c.194.188.492.2.686 0a.476.476 0 0 0 0-.686L5.191 4.518a.482.482 0 1 0-.686.68L14.783 15.47zm-4.78-10.606a9.262 9.262 0 0 0-2.907.473l.97.971a6.94 6.94 0 0 1 1.936-.279c3.877 0 6.96 3.373 6.96 4.083 0 .48-.983 1.717-2.543 2.694l.898.904c1.905-1.25 3.016-2.882 3.016-3.598 0-1.243-3.355-5.248-8.33-5.248zm0 10.503a9.34 9.34 0 0 0 3.075-.516l-.964-.965a7.428 7.428 0 0 1-2.112.316c-3.877 0-6.959-3.24-6.959-4.09 0-.406 1.032-1.723 2.694-2.742l-.916-.916c-1.984 1.262-3.155 2.93-3.155 3.658 0 1.244 3.428 5.255 8.336 5.255zm3.027-4.084c.158-.358.249-.758.249-1.17a3.249 3.249 0 0 0-3.277-3.265c-.418 0-.813.079-1.177.23l4.205 4.205zm-3.028 2.1c.474 0 .916-.11 1.31-.298L7.024 8.79c-.194.4-.303.843-.303 1.328a3.285 3.285 0 0 0 3.282 3.265z" fill="currentColor"/></svg>
